icons/midnadark/actions/24/quickview.svg

<svg xmlns="http://www.w3.org/2000/svg" viewBox="0 0 22 22"><defs><clipPath><path fill="#f2f2f2" d="m7 1023.36h1v1h-1z"/></clipPath><clipPath><path fill="#f2f2f2" d="m7 1023.36h1v1h-1z"/></clipPath><clipPath><path fill="#f2f2f2" d="m7 1023.36h1v1h-1z"/></clipPath><clipPath><path fill="#00f" fill-opacity=".514" d="m-7 1024.36h34v34h-34z"/></clipPath><clipPath><path fill="#aade87" fill-opacity=".472" d="m-6 1028.36h32v32h-32z"/></clipPath></defs><path d="m144.37 41.38c-7.605-12.438-17.831-22.432-30.676-29.982-12.846-7.55-26.41-11.325-40.695-11.325-14.285 0-27.85 3.774-40.696 11.325-12.846 7.55-23.07 17.544-30.675 29.982-1.086 1.901-1.629 3.775-1.629 5.622 0 1.847.543 3.721 1.629 5.621 7.604 12.439 17.829 22.434 30.675 29.982 12.846 7.551 26.411 11.324 40.696 11.324 14.285 0 27.85-3.761 40.695-11.283 12.845-7.522 23.07-17.53 30.676-30.02 1.086-1.9 1.629-3.773 1.629-5.621 0-1.847-.543-3.721-1.629-5.622m-35.971 32.22c-10.89 6.598-22.69 9.898-35.4 9.898-12.71 0-24.51-3.299-35.4-9.898-10.89-6.599-19.947-15.467-27.17-26.602 8.256-12.819 18.603-22.406 31.04-28.76-3.313 5.648-4.97 11.759-4.97 18.331 0 10.05 3.572 18.643 10.714 25.786 7.142 7.143 15.738 10.714 25.786 10.714 10.05 0 18.643-3.572 25.786-10.714 7.144-7.142 10.714-15.737 10.714-25.786 0-6.572-1.657-12.684-4.971-18.331 12.438 6.354 22.785 15.942 31.04 28.76-7.222 11.135-16.279 20-27.17 26.602" fill="#fff" transform="matrix(.13699 0 0 .13856 1 4.488)"/></svg>

<?xml version="1.0" encoding="UTF-8" standalone="no"?>
<!-- Created with Inkscape (http://www.inkscape.org/) -->

<svg
   xmlns:sketch="http://www.bohemiancoding.com/sketch/ns"
   xmlns:dc="http://purl.org/dc/elements/1.1/"
   xmlns:cc="http://creativecommons.org/ns#"
   xmlns:rdf="http://www.w3.org/1999/02/22-rdf-syntax-ns#"
   xmlns:svg="http://www.w3.org/2000/svg"
   xmlns="http://www.w3.org/2000/svg"
   xmlns:xlink="http://www.w3.org/1999/xlink"
   xmlns:sodipodi="http://sodipodi.sourceforge.net/DTD/sodipodi-0.dtd"
   xmlns:inkscape="http://www.inkscape.org/namespaces/inkscape"
   width="22"
   height="22"
   id="svg3869"
   version="1.1"
   inkscape:version="0.91 r13725"
   sodipodi:docname="quickview.svg">
  <defs
     id="defs3871">
    <linearGradient
       id="linearGradient3257">
      <stop
         offset="0"
         style="stop-color:#a50000;stop-opacity:1"
         id="stop3259" />
      <stop
         offset="1"
         style="stop-color:#e73800;stop-opacity:1"
         id="stop3261" />
    </linearGradient>
    <clipPath
       clipPathUnits="userSpaceOnUse"
       id="clipPath4210">
      <rect
         y="1024.3622"
         x="-7"
         height="34"
         width="34"
         id="rect4212"
         style="opacity:1;fill:#0000ff;fill-opacity:0.51376145;stroke:none;stroke-opacity:1" />
    </clipPath>
    <clipPath
       clipPathUnits="userSpaceOnUse"
       id="clipPath4160">
      <rect
         style="opacity:1;fill:#aade87;fill-opacity:0.47247709;stroke:none;stroke-opacity:1"
         id="rect4162"
         width="32"
         height="32.000015"
         x="-6"
         y="1028.3619" />
    </clipPath>
    <clipPath
       id="clipPath4160-4"
       clipPathUnits="userSpaceOnUse">
      <rect
         y="1023.3622"
         x="7"
         height="1"
         width="1"
         id="rect4162-5"
         style="opacity:1;fill:#f2f2f2;fill-opacity:1;stroke:none;stroke-opacity:1" />
    </clipPath>
    <clipPath
       clipPathUnits="userSpaceOnUse"
       id="clipPath4160-6">
      <rect
         style="opacity:1;fill:#f2f2f2;fill-opacity:1;stroke:none;stroke-opacity:1"
         id="rect4162-8"
         width="1"
         height="1"
         x="7"
         y="1023.3622" />
    </clipPath>
    <linearGradient
       y2="1045.3622"
       x2="15"
       y1="1045.3622"
       x1="3"
       gradientUnits="userSpaceOnUse"
       id="linearGradient4123"
       xlink:href="#linearGradient4021-3"
       inkscape:collect="always"
       gradientTransform="translate(0,-1.9999941)" />
    <linearGradient
       id="linearGradient4021-3">
      <stop
         style="stop-color:#b3b3b3;stop-opacity:1;"
         offset="0"
         id="stop4023-0" />
      <stop
         style="stop-color:#4d4d4d;stop-opacity:1;"
         offset="1"
         id="stop4025-2" />
    </linearGradient>
    <clipPath
       clipPathUnits="userSpaceOnUse"
       id="clipPath4160-8">
      <rect
         style="opacity:1;fill:#f2f2f2;fill-opacity:1;stroke:none;stroke-opacity:1"
         id="rect4162-9"
         width="1"
         height="1"
         x="7"
         y="1023.3622" />
    </clipPath>
  </defs>
  <sodipodi:namedview
     id="base"
     pagecolor="#ffffff"
     bordercolor="#666666"
     borderopacity="1.0"
     inkscape:pageopacity="0.0"
     inkscape:pageshadow="2"
     inkscape:zoom="11.313708"
     inkscape:cx="-31.770487"
     inkscape:cy="13.128665"
     inkscape:document-units="px"
     inkscape:current-layer="layer1"
     showgrid="true"
     fit-margin-top="0"
     fit-margin-left="0"
     fit-margin-right="0"
     fit-margin-bottom="0"
     inkscape:window-width="1366"
     inkscape:window-height="633"
     inkscape:window-x="0"
     inkscape:window-y="33"
     inkscape:window-maximized="1"
     inkscape:showpageshadow="false"
     inkscape:object-nodes="true"
     inkscape:snap-bbox="true">
    <inkscape:grid
       type="xygrid"
       id="grid4132" />
    <sodipodi:guide
       position="4,18"
       orientation="18,0"
       id="guide4138" />
    <sodipodi:guide
       position="5,3"
       orientation="0,18"
       id="guide4140" />
    <sodipodi:guide
       position="20,2.0000174"
       orientation="-18,0"
       id="guide4142" />
    <sodipodi:guide
       position="2,21"
       orientation="0,-18"
       id="guide4144" />
    <sodipodi:guide
       position="3,19.000017"
       orientation="16,0"
       id="guide4146" />
    <sodipodi:guide
       position="2,4"
       orientation="0,16"
       id="guide4148" />
    <sodipodi:guide
       position="21,20"
       orientation="-16,0"
       id="guide4150" />
    <sodipodi:guide
       position="2,20"
       orientation="0,-16"
       id="guide4152" />
  </sodipodi:namedview>
  <metadata
     id="metadata3874">
    <rdf:RDF>
      <cc:Work
         rdf:about="">
        <dc:format>image/svg+xml</dc:format>
        <dc:type
           rdf:resource="http://purl.org/dc/dcmitype/StillImage" />
        <dc:title />
      </cc:Work>
    </rdf:RDF>
  </metadata>
  <g
     inkscape:label="Capa 1"
     inkscape:groupmode="layer"
     id="layer1"
     transform="translate(-326,-534.3622)">
    <g
       id="layer1-0"
       inkscape:label="Capa 1"
       transform="matrix(0.93865863,0,0,0.93865863,19.733383,34.39192)"
       style="fill:#ffffff;fill-opacity:1">
      <g
         style="fill:#ffffff;fill-opacity:1"
         transform="matrix(0.14593836,0,0,0.14761278,327.3465,537.42455)"
         sketch:type="MSLayerGroup"
         id="eye50-4">
        <path
           style="fill:#ffffff;fill-opacity:1"
           inkscape:connector-curvature="0"
           sketch:type="MSShapeGroup"
           id="path1643-0"
           d="M 144.371,41.378 C 136.766,28.94 126.54,18.946 113.695,11.396 100.849,3.846 87.285,0.071 73,0.071 58.715,0.071 45.15,3.845 32.304,11.396 19.458,18.946 9.233,28.94 1.629,41.378 0.543,43.279 0,45.153 0,47 0,48.847 0.543,50.721 1.629,52.621 9.233,65.06 19.458,75.055 32.304,82.603 45.15,90.154 58.715,93.927 73,93.927 c 14.285,0 27.85,-3.761 40.695,-11.283 12.845,-7.522 23.072,-17.53 30.676,-30.023 1.086,-1.9 1.629,-3.773 1.629,-5.621 0,-1.847 -0.543,-3.721 -1.629,-5.622 z M 108.4,73.602 C 97.51,80.2 85.71,83.5 73,83.5 60.29,83.5 48.49,80.201 37.6,73.602 26.71,67.003 17.653,58.135 10.429,47 18.685,34.181 29.032,24.594 41.47,18.24 38.157,23.888 36.5,29.999 36.5,36.571 36.5,46.62 40.072,55.214 47.214,62.357 54.356,69.5 62.952,73.071 73,73.071 c 10.049,0 18.643,-3.572 25.786,-10.714 7.144,-7.142 10.714,-15.737 10.714,-25.786 0,-6.572 -1.657,-12.684 -4.971,-18.331 12.438,6.354 22.785,15.942 31.041,28.76 -7.222,11.135 -16.279,20.002 -27.17,26.602 z"
           sodipodi:nodetypes="ccsccsccsscscccssccssscscccc" />
      </g>
    </g>
  </g>
</svg>
